X:1
T:Gelobet Seist, 87.88
T:Gelobet Seist, 87.88
T:15th Century, harmonized by Dr. A. B. Marx
T:Public Domain Courtesy of the Cyber Hymnal™
C:15th Century, harmonized by Dr. A. B. Marx
Z:Public Domain
Z:Courtesy of the Cyber Hymnal™
%%score ( 1 2 ) ( 3 4 )
L:1/8
Q:1/4=110
M:4/4
K:C
V:1 treble 
V:2 treble 
V:3 bass 
V:4 bass 
V:1
 z2 [DG]2 [EG]2 [EG]2 | [FA]2 [EG]2 [Ec]2 [Fd]2 | !fermata![Ec]4 [GB]2 [Gd]2 | %3
 [Ge]2 d2 [Ec]2 [=FA]2 | !fermata!G2 G2 [Gc]2 [GB]2 | [Fd]2 [FA]2 G2 [^CE]2 | %6
 !fermata!D2 D2 [EA]2 A2 | [FA]2 [FB]2 [Ec]2 [CA]2 | ([DG]4 [EA]4) | [DF]2 [DG]2 A4 | [DG]8 |] %11
V:2
 x8 | x8 | x8 | x2 (G^F) x4 | G2 G2 x4 | x4 (ED) x2 | D2 D2 (DE) x2 | x8 | x8 | x4 (F2 E2) | x8 |] %11
V:3
 z2 [G,B,]2 [E,B,]2 [C,C]2 | [F,C]2 [C,C]2 A,2 [G,B,]2 | !fermata![C,C]4 [G,D]2 [B,,D]2 | %3
 [C,C]2 [G,B,]2 (A,B,) [D,C]2 | !fermata![G,B,]2 B,2 [E,C]2 [G,D]2 | %5
 [D,D]2 [F,C]2 [G,_B,]2 (A,G,) | [D,F,]2 [D,F,]2 [C,E,]2 A,2 | [D,B,]2 [^G,D]2 [A,C]2 [A,,E,]2 | %8
 (D,2 D2) [A,,^C]4 | [D,D]2 [G,B,]2 [F,C]4 | [G,B,]8 |] %11
V:4
 x8 | x4 A,2 x2 | x8 | x4 A,2 x2 | x2 (G,F,) x4 | x6 A,,2 | x6 (F,E,) | x8 | _B,,4 x4 | x8 | x8 |] %11

